icons/jsTest_dark.svg

<!-- Copyright 2000-2024 JetBrains s.r.o. and contributors. Use of this source code is governed by the Apache 2.0 license. -->
<svg width="16" height="16" viewBox="0 0 16 16" fill="none" xmlns="http://www.w3.org/2000/svg">
<path d="M12 2C13.1046 2 14 2.89543 14 4V9.99945L13.37 9.39422C13.0897 9.12497 12.7508 9.0031 12.418 9.00107L12.2126 9H11.2329L10.586 9.00203C10.2513 9.00286 9.91014 9.12476 9.6284 9.39573L6.92953 11.9913C6.36009 12.539 6.35681 13.4482 6.91987 14H4C2.89543 14 2 13.1046 2 12V4C2 2.89543 2.89543 2 4 2H12Z" fill="#F2C55C"/>
<path d="M9.83573 9.22915C9.64381 9.17157 9.47152 9.08782 9.31886 8.9779C9.10511 8.824 8.93981 8.63163 8.82296 8.40078C8.70896 8.16708 8.65196 7.912 8.65196 7.63555C8.65196 7.30495 8.73746 7.00855 8.90846 6.74635C9.08231 6.4813 9.32314 6.27468 9.63094 6.12648C9.93874 5.97543 10.2864 5.8999 10.674 5.8999C11.0702 5.8999 11.4222 5.97258 11.73 6.11793C12.0406 6.26328 12.2829 6.46563 12.4567 6.72498C12.6306 6.98433 12.7189 7.28073 12.7218 7.61418H11.7086C11.7086 7.45173 11.6658 7.30638 11.5803 7.17813C11.4948 7.04703 11.3751 6.94585 11.2212 6.8746C11.0673 6.80335 10.8892 6.76773 10.6869 6.76773C10.4845 6.76773 10.3064 6.80193 10.1525 6.87033C9.99859 6.93873 9.87889 7.03563 9.79339 7.16103C9.70789 7.28643 9.66514 7.43178 9.66514 7.59708C9.66514 7.79088 9.72784 7.95903 9.85324 8.10153C9.97864 8.24118 10.1425 8.3281 10.3449 8.3623L11.3409 8.52475C11.6345 8.57605 11.8953 8.68578 12.1233 8.85393C12.1861 8.89971 12.2451 8.94855 12.3001 9.00046L12.2125 9H11.2327L10.5859 9.00203C10.3298 9.00266 10.0699 9.07419 9.83573 9.22915Z" fill="#1E1F22"/>
<path d="M4.21265 11H5.22155C5.37545 11 5.51082 10.9686 5.62767 10.906C5.74737 10.8404 5.83857 10.7492 5.90127 10.6323C5.96682 10.5127 5.9996 10.3759 5.9996 10.222L5.99965 6H7L6.99995 10.3584C6.99995 10.6804 6.9287 10.9654 6.7862 11.2134C6.6437 11.4613 6.44562 11.6551 6.19197 11.7948C5.93832 11.9316 5.64762 12 5.31987 12H4.21265V11Z" fill="#1E1F22"/>
<path fill-rule="evenodd" clip-rule="evenodd" d="M15.3798 12.7117C15.5435 12.8691 15.5436 13.131 15.3799 13.2884L12.6774 15.8876C12.4232 16.132 12 15.9519 12 15.5993L12 10.4038C12 10.0513 12.423 9.87118 12.6772 10.1154L15.3798 12.7117Z" fill="#57965C"/>
<path fill-rule="evenodd" clip-rule="evenodd" d="M7.62255 13.2883C7.45909 13.1309 7.45916 12.8692 7.62271 12.7119L10.3216 10.1163C10.5757 9.87185 10.9989 10.0519 10.9989 10.4045V15.5986C10.9989 15.9514 10.5755 16.1314 10.3214 15.8868L7.62255 13.2883Z" fill="#DB5C5C"/>
</svg>

<svg xmlns="http://www.w3.org/2000/svg" width="16" height="16" fill="none"><path fill="#F2C55C" d="M12 2a2 2 0 0 1 2 2v6l-.63-.606c-.28-.269-.62-.39-.952-.393L12.213 9h-.98l-.647.002c-.335 0-.676.123-.958.394L6.93 11.99A1.4 1.4 0 0 0 6.92 14H4a2 2 0 0 1-2-2V4a2 2 0 0 1 2-2z"/><path fill="#1E1F22" d="M9.836 9.23a1.7 1.7 0 0 1-.517-.252 1.6 1.6 0 0 1-.496-.577 1.7 1.7 0 0 1-.171-.765q0-.496.256-.89a1.75 1.75 0 0 1 .723-.62 2.3 2.3 0 0 1 1.043-.226q.594 0 1.056.218.466.218.727.607.26.39.265.89h-1.013a.77.77 0 0 0-.129-.437.84.84 0 0 0-.359-.303 1.3 1.3 0 0 0-.534-.107q-.303 0-.534.102a.83.83 0 0 0-.36.291.76.76 0 0 0-.128.436q0 .29.188.505.189.21.492.26l.996.163A1.83 1.83 0 0 1 12.3 9h-1.068l-.647.002c-.256 0-.516.072-.75.227M4.213 11h1.009q.23 0 .406-.094a.67.67 0 0 0 .273-.274.84.84 0 0 0 .099-.41V6h1v4.358q0 .483-.214.855-.213.372-.594.582A1.8 1.8 0 0 1 5.32 12H4.213z"/><path fill="#57965C" fill-rule="evenodd" d="M15.38 12.712a.4.4 0 0 1 0 .576l-2.703 2.6a.4.4 0 0 1-.677-.289v-5.195a.4.4 0 0 1 .677-.289z" clip-rule="evenodd"/><path fill="#DB5C5C" fill-rule="evenodd" d="M7.623 13.288a.4.4 0 0 1 0-.576l2.699-2.596a.4.4 0 0 1 .677.289v5.194a.4.4 0 0 1-.678.288z" clip-rule="evenodd"/></svg>
